assets/img/feature-consensus.svg

<?xml version="1.0" encoding="UTF-8"?>
<svg width="48px" height="48px" viewBox="0 0 48 48" version="1.1" xmlns="http://www.w3.org/2000/svg" xmlns:xlink="http://www.w3.org/1999/xlink">
    <!-- Generator: Sketch 63.1 (92452) - https://sketch.com -->
    <title>icon_2</title>
    <desc>Created with Sketch.</desc>
    <g id="Page-1" stroke="none" stroke-width="1" fill="none" fill-rule="evenodd">
        <g id="landing" transform="translate(-536.000000, -457.000000)" fill-rule="nonzero">
            <g id="Group-2" transform="translate(536.000000, 457.000000)">
                <g id="icon_2">
                    <rect id="Rectangle" fill="#F5ECE9" x="0" y="0" width="48" height="48" rx="24"></rect>
                    <path d="M12,15 C10.3549372,15 9,16.3549372 9,18 L9,28 C9,29.645062 10.3549372,31 12,31 L23.1015624,31 C23.0639846,31.332924 23,31.65728 23,32 C23,36.958718 27.0412818,41 32,41 C36.958718,41 41,36.958718 41,32 C41,29.880778 40.232418,27.954306 39,26.4140624 L39,18 C39,16.3549372 37.645062,15 36,15 L12,15 Z M12,17 L36,17 C36.562938,17 37,17.4370628 37,18 L37,24.5234376 C36.365758,24.0976134 35.659496,23.786106 34.925782,23.53125 C34.9742641,23.3583027 34.9992279,23.1796126 35,23 C35,21.8954305 34.1045695,21 33,21 C31.8954305,21 31,21.8954305 31,23 C31.0004414,23.0338818 31.0017439,23.0677468 31.003906,23.1015624 C30.278686,23.1831016 29.577298,23.3338302 28.9140624,23.578125 C28.9708641,23.3906647 28.999819,23.1958769 29,23 C29,21.8954305 28.1045695,21 27,21 C25.8954305,21 25,21.8954305 25,23 C25.0008576,23.9097927 25.6156511,24.704369 26.4960938,24.9335938 C25.1600004,25.9773754 24.1310144,27.3745452 23.5507812,29 L12,29 C11.4370628,29 11,28.5629372 11,28 L11,18 C11,17.4370628 11.4370628,17 12,17 Z M15,21 C13.8954305,21 13,21.8954305 13,23 C13,24.1045695 13.8954305,25 15,25 C16.1045695,25 17,24.1045695 17,23 C17,21.8954305 16.1045695,21 15,21 Z M21,21 C19.8954305,21 19,21.8954305 19,23 C19,24.1045695 19.8954305,25 21,25 C22.1045695,25 23,24.1045695 23,23 C23,21.8954305 22.1045695,21 21,21 Z M32,25 C35.877838,25 39,28.1221622 39,32 C39,35.877838 35.877838,39 32,39 C28.1221622,39 25,35.877838 25,32 C25,28.1221622 28.1221622,25 32,25 Z M35.003906,28.7226562 L31.320312,32.40625 L29.027344,30.113282 L27.6132812,31.527344 L31.320312,35.234376 L36.417968,30.136718 L35.003906,28.7226562 Z" id="Shape" fill="#BC7962"></path>
                </g>
            </g>
        </g>
    </g>
</svg>

<svg width="48" height="48" viewBox="0 0 48 48" xmlns="http://www.w3.org/2000/svg">
    <rect fill="#F5ECE9" width="48" height="48" rx="24"/>
    <path d="M12 15c-1.645 0-3 1.355-3 3v10c0 1.645 1.355 3 3 3h11.1016c-.0376.333-.1016.6573-.1016 1 0 4.9587 4.0413 9 9 9s9-4.0413 9-9c0-2.1192-.7676-4.0457-2-5.586V18c0-1.645-1.355-3-3-3H12zm0 2h24c.563 0 1 .437 1 1v6.5234c-.6342-.4258-1.3405-.7373-2.0742-.9921A2 2 0 0035 23c0-1.1046-.8954-2-2-2s-2 .8954-2 2a2 2 0 00.004.1016c-.7253.0815-1.4267.2322-2.09.4765A2 2 0 0029 23c0-1.1046-.8954-2-2-2s-2 .8954-2 2a2 2 0 001.496 1.9336c-1.336 1.0438-2.365 2.441-2.9452 4.0664H12c-.563 0-1-.437-1-1V18c0-.563.437-1 1-1zm3 4c-1.1046 0-2 .8954-2 2s.8954 2 2 2 2-.8954 2-2-.8954-2-2-2zm6 0c-1.1046 0-2 .8954-2 2s.8954 2 2 2 2-.8954 2-2-.8954-2-2-2zm11 4c3.8778 0 7 3.1222 7 7s-3.1222 7-7 7-7-3.1222-7-7 3.1222-7 7-7zm3.004 3.7227l-3.6837 3.6836-2.293-2.293-1.414 1.414 3.707 3.707 5.0977-5.0976-1.414-1.414z" fill="#BC7962"/>
</svg>
